assets/img/braze_icons/italic-02.svg

<svg fill="none" height="24" viewBox="0 0 24 24" width="24" xmlns="http://www.w3.org/2000/svg"><path clip-rule="evenodd" d="m6.55694 19 5.24996-14h-2.3069c-.55228 0-1-.44772-1-1s.44772-1 1-1h10c.5523 0 1 .44772 1 1 0 .55229-.4477 1-1 1h-2.0571l-5.25 14h2.3071c.5523 0 1 .4477 1 1s-.4477 1-1 1h-10c-.55228 0-1-.4477-1-1s.44772-1 1-1z" fill="#801ed7" fill-rule="evenodd"/></svg>

<svg width="24" height="24" viewBox="0 0 24 24" fill="none" xmlns="http://www.w3.org/2000/svg">
<path fill-rule="evenodd" clip-rule="evenodd" d="M6.55694 19L11.8069 5L9.5 5C8.94772 5 8.5 4.55228 8.5 4C8.5 3.44772 8.94772 3 9.5 3L19.5 3C20.0523 3 20.5 3.44772 20.5 4C20.5 4.55229 20.0523 5 19.5 5L17.4429 5L12.1929 19H14.5C15.0523 19 15.5 19.4477 15.5 20C15.5 20.5523 15.0523 21 14.5 21H4.5C3.94772 21 3.5 20.5523 3.5 20C3.5 19.4477 3.94772 19 4.5 19H6.55694Z" fill="#801ED7"/>
</svg>
